src/assets/media/svg/sprite/google.svg

<svg width="24" height="24" viewBox="0 0 24 24"  xmlns="http://www.w3.org/2000/svg">
<path fill-rule="evenodd" clip-rule="evenodd" d="M14.7384 0.5H8.67164C7.86667 0.5 7.00371 0.593182 6.08375 0.779545C5.15379 0.995647 4.25782 1.45759 3.39586 2.16438C2.13991 3.37376 1.51194 4.71796 1.51194 6.20192C1.51194 7.42914 1.95492 8.5047 2.84188 9.42858C3.68785 10.4199 4.9198 10.9264 6.53373 10.9453C6.83872 10.9453 7.1637 10.9264 7.50769 10.8868C7.45069 11.0444 7.38869 11.2169 7.32169 11.4052C7.2467 11.5827 7.2087 11.8057 7.2087 12.0724C7.2087 12.5165 7.3077 12.8971 7.50769 13.2133C7.67868 13.5395 7.87367 13.8458 8.09266 14.1323C7.38469 14.1521 6.49573 14.2403 5.42477 14.396C4.34282 14.5833 3.31186 14.955 2.3289 15.5141C1.45394 16.0326 0.849965 16.6363 0.515979 17.3223C0.171993 18.0082 0 18.6308 0 19.1908C0 20.3368 0.528978 21.3221 1.58593 22.1469C2.63389 23.0281 4.21982 23.4802 6.34474 23.5C8.88263 23.4603 10.8255 22.8557 12.1715 21.6869C13.4684 20.5578 14.1184 19.2612 14.1184 17.7971C14.0994 16.7661 13.8624 15.9315 13.4084 15.2931C12.9265 14.6646 12.3655 14.0896 11.7265 13.5692L10.6966 12.7306C10.5486 12.5829 10.3966 12.4114 10.2386 12.2141C10.0536 12.0079 9.96058 11.7472 9.96058 11.433C9.96058 11.1088 10.0506 10.8233 10.2316 10.5785C10.3846 10.3426 10.5516 10.1314 10.7336 9.94505C11.0495 9.67046 11.3475 9.39984 11.6275 9.13516C11.8805 8.86949 12.1205 8.58004 12.3465 8.2658C12.8065 7.61749 13.0465 6.75308 13.0645 5.67257C13.0645 5.08374 12.9975 4.56827 12.8635 4.12516C12.7025 3.68304 12.5165 3.30041 12.3075 2.97625C12.0885 2.63227 11.8635 2.34282 11.6345 2.10689C11.3975 1.88087 11.1825 1.70938 10.9925 1.59141H12.8635L14.7374 0.502974L14.7384 0.5ZM11.4125 16.9723C11.9145 17.5413 12.1655 18.2105 12.1655 18.9757C12.1655 19.9185 11.7985 20.6907 11.0645 21.2894C10.3106 21.8991 9.21962 22.2133 7.79068 22.2331C6.19674 22.2133 4.9418 21.8594 4.02383 21.1724C3.05788 20.4835 2.5749 19.6092 2.5749 18.5485C2.5749 18.0072 2.68589 17.5463 2.90788 17.1636C3.10087 16.7998 3.33786 16.4945 3.61785 16.2497C3.90784 16.0137 4.19283 15.8323 4.47282 15.7045C4.7528 15.5855 4.9698 15.4983 5.12479 15.4388C5.78076 15.2425 6.42373 15.0998 7.05171 15.0106C7.68968 14.9521 8.08566 14.9322 8.23866 14.9521C8.50065 14.9521 8.72664 14.963 8.92063 14.9818C10.0506 15.7679 10.8815 16.4311 11.4125 16.9713V16.9723ZM10.4286 8.08538C10.3546 8.48884 10.1896 8.88238 9.93359 9.26601C9.40061 9.80726 8.73564 10.0937 7.93667 10.1225C7.3047 10.1225 6.74272 9.93018 6.25074 9.54655C5.75876 9.16292 5.35778 8.69503 5.04679 8.14387C4.40482 6.96324 4.08383 5.82622 4.08383 4.73382C4.06383 3.90708 4.28382 3.15865 4.7438 2.48953C5.28878 1.84915 5.97175 1.52004 6.79372 1.50022C7.41469 1.52004 7.96467 1.70244 8.44265 2.04642C8.91063 2.41023 9.28861 2.88307 9.5746 3.46397C10.1866 4.67434 10.4926 5.87579 10.4926 7.06633C10.4926 7.3429 10.4706 7.68193 10.4266 8.08538H10.4286ZM20.8001 10.0164V6.84428H19.2012V10.0164H16.0013V11.6025H19.2012V14.7746H20.8001V11.6025H24V10.0164H20.8001Z" />
</svg>

<svg xmlns="http://www.w3.org/2000/svg" width="24" height="24"><path fill-rule="evenodd" d="M14.738.5H8.672Q7.464.5 6.084.78q-1.395.325-2.688 1.384-1.884 1.814-1.884 4.038 0 1.84 1.33 3.227 1.27 1.486 3.692 1.516.458 0 .974-.058-.086.236-.186.518-.113.267-.113.667 0 .667.299 1.141.256.49.585.92-1.062.03-2.668.263a9.5 9.5 0 0 0-3.096 1.118q-1.312.779-1.813 1.808Q0 18.351 0 19.191q0 1.719 1.586 2.956 1.572 1.322 4.759 1.353 3.807-.06 5.827-1.813 1.945-1.694 1.946-3.89-.029-1.546-.71-2.504a10.3 10.3 0 0 0-1.681-1.724l-1.03-.838q-.221-.222-.458-.517-.278-.31-.278-.781 0-.487.27-.854.23-.354.503-.634.474-.412.893-.81.38-.398.72-.87.69-.972.718-2.592 0-.884-.201-1.548a5.7 5.7 0 0 0-1.23-2.018 4 4 0 0 0-.642-.516h1.871L14.738.503zm-3.325 16.472q.752.855.752 2.004 0 1.415-1.1 2.313-1.13.914-3.274.944-2.391-.03-3.767-1.06-1.45-1.035-1.45-2.624 0-.813.334-1.385.29-.547.71-.914.435-.354.855-.546.42-.177.652-.265a13 13 0 0 1 1.927-.428q.957-.089 1.187-.059.392 0 .682.03 1.695 1.18 2.492 1.99m-.984-8.887a3.1 3.1 0 0 1-.495 1.181q-.799.813-1.997.857a2.67 2.67 0 0 1-1.686-.576 4.7 4.7 0 0 1-1.204-1.403q-.963-1.771-.963-3.41-.03-1.24.66-2.244.817-.96 2.05-.99.93.03 1.649.546a4 4 0 0 1 1.132 1.418q.918 1.816.918 3.602 0 .415-.066 1.02zM20.8 10.016V6.844h-1.599v3.172h-3.2v1.586h3.2v3.173h1.6v-3.173H24v-1.586z" clip-rule="evenodd"/></svg>
